static/redoc.svg

<svg xmlns="http://www.w3.org/2000/svg" xmlns:xlink="http://www.w3.org/1999/xlink" width="40pt" height="40pt"
    viewBox="0 0 40 40" version="1.1">
    <script xmlns="" src="chrome-extension://fjnbnpbmkenffdnngjfgmeleoegfcffe/static/js/contentInt.js" />
    <g id="surface1">
        <path style=" stroke:none;fill-rule:nonzero;fill:rgb(31.372549%,35.294118%,43.529412%);fill-opacity:1;"
            d="M 30.953125 29.257812 C 36.28125 26.859375 40 21.507812 40 15.300781 C 40 6.863281 33.136719 0 24.699219 0 L 5.898438 0 C 2.648438 0 0 2.648438 0 5.898438 L 0 34.101562 C 0 37.351562 2.648438 40 5.898438 40 L 33.351562 40 C 34.777344 40 36 39.183594 36.542969 37.867188 C 37.089844 36.550781 36.800781 35.109375 35.796875 34.101562 Z M 5.898438 2.398438 L 24.699219 2.398438 C 31.8125 2.398438 37.601562 8.1875 37.601562 15.300781 C 37.601562 20.863281 34.058594 25.613281 29.113281 27.414062 L 11.449219 9.746094 C 11.222656 9.523438 10.914062 9.394531 10.601562 9.394531 L 5.898438 9.394531 C 3.96875 9.394531 2.398438 7.828125 2.398438 5.894531 C 2.398438 3.964844 3.96875 2.398438 5.898438 2.398438 Z M 34.328125 36.949219 C 34.265625 37.101562 34.007812 37.601562 33.351562 37.601562 L 5.898438 37.601562 C 3.96875 37.601562 2.398438 36.03125 2.398438 34.101562 L 2.398438 10.644531 C 3.378906 11.367188 4.59375 11.796875 5.898438 11.796875 L 10.105469 11.796875 L 34.101562 35.792969 C 34.5625 36.261719 34.390625 36.792969 34.328125 36.949219 Z M 34.328125 36.949219 " />
        <path style=" stroke:none;fill-rule:nonzero;fill:rgb(31.372549%,35.294118%,43.529412%);fill-opacity:1;"
            d="M 5.714844 25.800781 L 17.316406 25.800781 C 17.980469 25.800781 18.515625 25.265625 18.515625 24.601562 C 18.515625 23.9375 17.980469 23.398438 17.316406 23.398438 L 5.714844 23.398438 C 5.050781 23.398438 4.515625 23.9375 4.515625 24.601562 C 4.515625 25.265625 5.050781 25.800781 5.714844 25.800781 Z M 5.714844 25.800781 " />
        <path style=" stroke:none;fill-rule:nonzero;fill:rgb(31.372549%,35.294118%,43.529412%);fill-opacity:1;"
            d="M 5.714844 21 L 12.914062 21 C 13.578125 21 14.117188 20.464844 14.117188 19.800781 C 14.117188 19.136719 13.578125 18.601562 12.914062 18.601562 L 5.714844 18.601562 C 5.050781 18.601562 4.515625 19.136719 4.515625 19.800781 C 4.515625 20.464844 5.050781 21 5.714844 21 Z M 5.714844 21 " />
        <path style=" stroke:none;fill-rule:nonzero;fill:rgb(31.372549%,35.294118%,43.529412%);fill-opacity:1;"
            d="M 22.117188 28.199219 L 5.714844 28.199219 C 5.050781 28.199219 4.515625 28.734375 4.515625 29.398438 C 4.515625 30.0625 5.050781 30.601562 5.714844 30.601562 L 22.117188 30.601562 C 22.78125 30.601562 23.316406 30.0625 23.316406 29.398438 C 23.316406 28.734375 22.777344 28.199219 22.117188 28.199219 Z M 22.117188 28.199219 " />
    </g>
</svg>

<svg xmlns="http://www.w3.org/2000/svg" width="40pt" height="40pt" viewBox="0 0 40 40">
    <g fill="#505a6f">
        <path
            d="M30.953 29.258C36.281 26.859 40 21.508 40 15.3 40 6.863 33.137 0 24.7 0H5.897A5.908 5.908 0 0 0 0 5.898v28.204A5.908 5.908 0 0 0 5.898 40h27.454a3.396 3.396 0 0 0 3.191-2.133 3.403 3.403 0 0 0-.746-3.765ZM5.898 2.398H24.7c7.113 0 12.903 5.79 12.903 12.903 0 5.562-3.543 10.312-8.489 12.113L11.45 9.746a1.221 1.221 0 0 0-.847-.351H5.898c-1.93 0-3.5-1.567-3.5-3.5a3.5 3.5 0 0 1 3.5-3.497Zm28.43 34.551c-.062.153-.32.653-.976.653H5.898c-1.93 0-3.5-1.57-3.5-3.5V10.645a5.891 5.891 0 0 0 3.5 1.152h4.207l23.997 23.996c.46.469.289 1 .226 1.156Zm0 0" />
        <path
            d="M5.715 25.8h11.601a1.2 1.2 0 0 0 0-2.402H5.715a1.2 1.2 0 0 0-1.2 1.204c0 .664.536 1.199 1.2 1.199ZM5.715 21h7.2a1.2 1.2 0 1 0 0-2.398h-7.2c-.664 0-1.2.535-1.2 1.199S5.052 21 5.716 21ZM22.117 28.2H5.715a1.2 1.2 0 0 0 0 2.402h16.402a1.2 1.2 0 0 0 0-2.403Zm0 0" />
    </g>
</svg>
